austria/municipalities/31950.svg

<?xml version="1.0" encoding="UTF-8"?>
<!DOCTYPE svg PUBLIC "-//W3C//DTD SVG 1.1//EN" "http://www.w3.org/Graphics/SVG/1.1/DTD/svg11.dtd">
<svg xmlns="http://www.w3.org/2000/svg" version="1.1" width="502px" height="505px" style="shape-rendering:geometricPrecision; text-rendering:geometricPrecision; image-rendering:optimizeQuality; fill-rule:evenodd; clip-rule:evenodd" xmlns:xlink="http://www.w3.org/1999/xlink">
<g><path style="opacity:1" fill="#fdfdfd" d="M -0.5,-0.5 C 166.833,-0.5 334.167,-0.5 501.5,-0.5C 501.5,167.833 501.5,336.167 501.5,504.5C 334.167,504.5 166.833,504.5 -0.5,504.5C -0.5,336.167 -0.5,167.833 -0.5,-0.5 Z"/></g>
<g><path style="opacity:1" fill="#fdfdfd" d="M 255.5,5.5 C 335.167,5.5 414.833,5.5 494.5,5.5C 493.584,16.8153 492.918,28.1486 492.5,39.5C 492.623,46.5293 492.29,53.5293 491.5,60.5C 490.558,69.3296 489.892,78.3296 489.5,87.5C 489.5,89.1667 489.5,90.8333 489.5,92.5C 487.936,109.314 486.936,126.314 486.5,143.5C 482.833,193.979 479.666,244.646 477,295.5C 476.44,305.583 475.274,315.583 473.5,325.5C 455.094,395.436 412.761,445.27 346.5,475C 327.349,483.051 307.682,488.884 287.5,492.5C 282.187,493.098 276.854,493.431 271.5,493.5C 265.833,493.5 260.167,493.5 254.5,493.5C 254.169,330.793 254.503,168.126 255.5,5.5 Z"/></g>
<g><path style="opacity:1" fill="#414847" d="M 1.5,2.5 C 167.334,1.16733 333.334,1.16733 499.5,2.5C 499.376,3.10667 499.043,3.44001 498.5,3.5C 333.001,2.50034 167.334,2.167 1.5,2.5 Z"/></g>
<g><path style="opacity:1" fill="#d6473a" d="M 6.5,6.5 C 87.5,6.5 168.5,6.5 249.5,6.5C 249.5,56.8333 249.5,107.167 249.5,157.5C 171.096,157.83 92.7625,157.497 14.5,156.5C 13.8868,152.063 13.2202,147.73 12.5,143.5C 12.3767,132.825 12.0434,122.159 11.5,111.5C 11.8221,103.271 11.1554,95.2707 9.5,87.5C 8.68031,76.8439 8.01365,66.1772 7.5,55.5C 7.2815,44.6529 6.61483,33.9863 5.5,23.5C 5.1778,17.642 5.51114,11.9753 6.5,6.5 Z"/></g>
<g><path style="opacity:1" fill="#442622" d="M 5.5,23.5 C 6.61483,33.9863 7.2815,44.6529 7.5,55.5C 6.16667,55.5 5.5,54.8333 5.5,53.5C 5.5,43.5 5.5,33.5 5.5,23.5 Z"/></g>
<g><path style="opacity:1" fill="#9d4840" d="M 6.5,6.5 C 87.3316,5.50069 168.332,5.16736 249.5,5.5C 250.499,56.664 250.832,107.997 250.5,159.5C 249.5,159.5 248.5,159.5 247.5,159.5C 247.5,159.167 247.5,158.833 247.5,158.5C 248.492,158.672 249.158,158.338 249.5,157.5C 249.5,107.167 249.5,56.8333 249.5,6.5C 168.5,6.5 87.5,6.5 6.5,6.5 Z"/></g>
<g><path style="opacity:1" fill="#4b4f55" d="M 494.5,71.5 C 494.224,79.6806 493.557,87.6806 492.5,95.5C 491.866,87.0968 492.533,79.0968 494.5,71.5 Z"/></g>
<g><path style="opacity:1" fill="#94413b" d="M 9.5,87.5 C 11.1554,95.2707 11.8221,103.271 11.5,111.5C 9.98986,103.716 9.32319,95.7163 9.5,87.5 Z"/></g>
<g><path style="opacity:1" fill="#020202" d="M 418.5,314.5 C 419.665,261.668 419.832,208.668 419,155.5C 418.209,156.745 417.709,158.078 417.5,159.5C 401.214,219.311 385.547,279.311 370.5,339.5C 366.003,340.055 361.836,339.389 358,337.5C 342.627,279.006 326.794,220.672 310.5,162.5C 310.313,160.436 309.813,158.436 309,156.5C 308.168,208.668 308.335,260.668 309.5,312.5C 310.656,323.973 316.99,328.639 328.5,326.5C 328.5,330.833 328.5,335.167 328.5,339.5C 310.5,339.5 292.5,339.5 274.5,339.5C 274.5,335.167 274.5,330.833 274.5,326.5C 281.81,327.785 287.976,325.785 293,320.5C 293.333,319.5 293.667,318.5 294,317.5C 295.146,289.372 295.646,261.205 295.5,233C 295.333,206.5 295.167,180 295,153.5C 294.3,149.934 292.467,147.1 289.5,145C 284.58,143.75 279.58,143.25 274.5,143.5C 274.5,139.167 274.5,134.833 274.5,130.5C 290.847,130.167 307.18,130.501 323.5,131.5C 338.646,185.435 353.479,239.435 368,293.5C 383.021,239.275 397.521,184.941 411.5,130.5C 427.167,130.5 442.833,130.5 458.5,130.5C 458.5,134.833 458.5,139.167 458.5,143.5C 450.299,141.4 444.466,144.066 441,151.5C 439.854,179.295 439.354,207.128 439.5,235C 439.359,263.2 439.859,291.367 441,319.5C 445.01,325.976 450.843,328.309 458.5,326.5C 458.5,330.833 458.5,335.167 458.5,339.5C 439.167,339.5 419.833,339.5 400.5,339.5C 400.5,335.167 400.5,330.833 400.5,326.5C 408.09,328.145 413.923,325.812 418,319.5C 418.494,317.866 418.66,316.199 418.5,314.5 Z"/></g>
<g><path style="opacity:1" fill="#66696c" d="M 492.5,95.5 C 491.958,118.366 490.625,141.032 488.5,163.5C 489.013,140.634 490.346,117.967 492.5,95.5 Z"/></g>
<g><path style="opacity:1" fill="#d14744" d="M 14.5,156.5 C 92.7625,157.497 171.096,157.83 249.5,157.5C 249.158,158.338 248.492,158.672 247.5,158.5C 169.493,159.164 91.8262,158.497 14.5,156.5 Z"/></g>
<g><path style="opacity:1" fill="#6a322c" d="M 12.5,143.5 C 13.2202,147.73 13.8868,152.063 14.5,156.5C 91.8262,158.497 169.493,159.164 247.5,158.5C 247.5,158.833 247.5,159.167 247.5,159.5C 169.497,159.833 91.4972,159.5 13.5,158.5C 12.5524,153.565 12.219,148.565 12.5,143.5 Z"/></g>
<g><path style="opacity:1" fill="#252527" d="M 4.5,53.5 C 4.83333,53.5 5.16667,53.5 5.5,53.5C 5.5,54.8333 6.16667,55.5 7.5,55.5C 8.01365,66.1772 8.68031,76.8439 9.5,87.5C 9.32319,95.7163 9.98986,103.716 11.5,111.5C 12.0434,122.159 12.3767,132.825 12.5,143.5C 12.219,148.565 12.5524,153.565 13.5,158.5C 91.4972,159.5 169.497,159.833 247.5,159.5C 248.5,159.5 249.5,159.5 250.5,159.5C 250.5,160.833 250.5,162.167 250.5,163.5C 250.167,163.5 249.833,163.5 249.5,163.5C 171.335,162.501 93.0018,162.167 14.5,162.5C 14.5,163.833 14.5,165.167 14.5,166.5C 14.3336,174.174 14.5003,181.841 15,189.5C 15.1862,192.036 15.6862,194.369 16.5,196.5C 16.5,197.5 16.5,198.5 16.5,199.5C 16.9401,218.848 17.7734,238.181 19,257.5C 19.1829,260.365 19.6829,263.031 20.5,265.5C 20.9225,282.237 22.2558,298.904 24.5,315.5C 23.8826,315.389 23.3826,315.056 23,314.5C 22.5065,316.134 22.3398,317.801 22.5,319.5C 21.7321,318.737 21.2321,317.737 21,316.5C 19.6485,307.541 18.8151,298.541 18.5,289.5C 18.9384,278.61 18.2717,267.943 16.5,257.5C 16.3414,240.629 15.3414,223.962 13.5,207.5C 12.5119,202.36 12.1786,197.026 12.5,191.5C 12.9213,183.589 12.2546,175.923 10.5,168.5C 8.22389,130.185 6.22389,91.8518 4.5,53.5 Z"/></g>
<g><path style="opacity:1" fill="#141416" d="M 14.5,162.5 C 12.7965,166.088 11.7965,165.422 11.5,160.5C 90.834,160.333 170.167,160.5 249.5,161C 170.999,161.167 92.6656,161.667 14.5,162.5 Z"/></g>
<g><path style="opacity:1" fill="#fdfefe" d="M 14.5,162.5 C 93.0018,162.167 171.335,162.501 249.5,163.5C 249.5,214.167 249.5,264.833 249.5,315.5C 174.5,315.5 99.5,315.5 24.5,315.5C 22.2558,298.904 20.9225,282.237 20.5,265.5C 19.8224,243.31 18.4891,221.31 16.5,199.5C 16.5,198.5 16.5,197.5 16.5,196.5C 16.3335,186.315 15.6668,176.315 14.5,166.5C 14.5,165.167 14.5,163.833 14.5,162.5 Z"/></g>
<g><path style="opacity:1" fill="#bebebe" d="M 418.5,314.5 C 418.832,262.664 418.499,210.997 417.5,159.5C 417.709,158.078 418.209,156.745 419,155.5C 419.832,208.668 419.665,261.668 418.5,314.5 Z"/></g>
<g><path style="opacity:1" fill="#f8f8e9" d="M 253.5,5.5 C 254.167,5.5 254.833,5.5 255.5,5.5C 254.503,168.126 254.169,330.793 254.5,493.5C 260.167,493.5 265.833,493.5 271.5,493.5C 271.5,493.833 271.5,494.167 271.5,494.5C 265.441,494.254 259.441,494.587 253.5,495.5C 253.5,332.167 253.5,168.833 253.5,5.5 Z"/></g>
<g><path style="opacity:1" fill="#bcbcbc" d="M 310.5,162.5 C 309.501,212.331 309.168,262.331 309.5,312.5C 308.335,260.668 308.168,208.668 309,156.5C 309.813,158.436 310.313,160.436 310.5,162.5 Z"/></g>
<g><path style="opacity:1" fill="#626365" d="M 10.5,168.5 C 12.2546,175.923 12.9213,183.589 12.5,191.5C 11.5488,184.005 10.8822,176.339 10.5,168.5 Z"/></g>
<g><path style="opacity:1" fill="#4e5153" d="M 14.5,166.5 C 15.6668,176.315 16.3335,186.315 16.5,196.5C 15.6862,194.369 15.1862,192.036 15,189.5C 14.5003,181.841 14.3336,174.174 14.5,166.5 Z"/></g>
<g><path style="opacity:1" fill="#6a6f6d" d="M 486.5,191.5 C 486.49,206.718 485.49,221.718 483.5,236.5C 484,221.315 485,206.315 486.5,191.5 Z"/></g>
<g><path style="opacity:1" fill="#242521" d="M 486.5,143.5 C 486.334,151.174 486.5,158.841 487,166.5C 487.232,165.263 487.732,164.263 488.5,163.5C 488.374,172.879 487.708,182.212 486.5,191.5C 485,206.315 484,221.315 483.5,236.5C 482.223,257.154 481.057,277.82 480,298.5C 479.343,308.435 477.843,318.101 475.5,327.5C 474.833,326.833 474.167,326.167 473.5,325.5C 475.274,315.583 476.44,305.583 477,295.5C 479.666,244.646 482.833,193.979 486.5,143.5 Z"/></g>
<g><path style="opacity:1" fill="#717477" d="M 13.5,207.5 C 15.3414,223.962 16.3414,240.629 16.5,257.5C 14.8073,241.027 13.8073,224.361 13.5,207.5 Z"/></g>
<g><path style="opacity:1" fill="#434548" d="M 16.5,199.5 C 18.4891,221.31 19.8224,243.31 20.5,265.5C 19.6829,263.031 19.1829,260.365 19,257.5C 17.7734,238.181 16.9401,218.848 16.5,199.5 Z"/></g>
<g><path style="opacity:1" fill="#6b6c6e" d="M 16.5,257.5 C 18.2717,267.943 18.9384,278.61 18.5,289.5C 17.4901,279.007 16.8235,268.341 16.5,257.5 Z"/></g>
<g><path style="opacity:1" fill="#595a5c" d="M 249.5,163.5 C 249.833,163.5 250.167,163.5 250.5,163.5C 250.5,214.833 250.5,266.167 250.5,317.5C 174.826,318.164 99.4926,317.497 24.5,315.5C 99.5,315.5 174.5,315.5 249.5,315.5C 249.5,264.833 249.5,214.167 249.5,163.5 Z"/></g>
<g><path style="opacity:1" fill="#292626" d="M 250.5,319.5 C 250.167,319.5 249.833,319.5 249.5,319.5C 235.5,319.5 221.5,319.5 207.5,319.5C 146.833,319.5 86.1667,319.5 25.5,319.5C 25.2155,321.415 25.5489,323.081 26.5,324.5C 27.3359,328.323 28.3359,331.989 29.5,335.5C 31.8286,342.71 33.9952,350.044 36,357.5C 39.6035,364.374 42.9368,371.374 46,378.5C 59.172,400.978 75.3387,421.145 94.5,439C 100.784,444.464 107.45,449.297 114.5,453.5C 116.633,456.738 119.633,458.738 123.5,459.5C 126.514,460.693 129.181,462.526 131.5,465C 134.61,465.053 136.944,466.386 138.5,469C 147.936,473.719 157.603,477.885 167.5,481.5C 173.891,484.102 180.557,486.102 187.5,487.5C 202.789,492.237 218.456,494.57 234.5,494.5C 234.5,494.833 234.5,495.167 234.5,495.5C 229.056,494.892 224.056,495.558 219.5,497.5C 141.86,486.664 83.0265,447.664 43,380.5C 32.8008,361.729 25.9675,341.729 22.5,320.5C 23.2891,320.217 23.9558,319.717 24.5,319C 100.001,318.168 175.334,318.334 250.5,319.5 Z"/></g>
<g><path style="opacity:1" fill="#894539" d="M 207.5,319.5 C 147.336,320.499 87.0023,320.832 26.5,320.5C 26.5,321.833 26.5,323.167 26.5,324.5C 25.5489,323.081 25.2155,321.415 25.5,319.5C 86.1667,319.5 146.833,319.5 207.5,319.5 Z"/></g>
<g><path style="opacity:1" fill="#cc4942" d="M 207.5,319.5 C 221.5,319.5 235.5,319.5 249.5,319.5C 249.5,320.5 249.5,321.5 249.5,322.5C 175.589,321.506 101.756,321.172 28,321.5C 27.2506,322.635 27.4173,323.635 28.5,324.5C 29.6869,323.106 30.3535,323.273 30.5,325C 30.0946,325.945 29.428,326.612 28.5,327C 30.5074,329.562 30.8407,332.396 29.5,335.5C 28.3359,331.989 27.3359,328.323 26.5,324.5C 26.5,323.167 26.5,321.833 26.5,320.5C 87.0023,320.832 147.336,320.499 207.5,319.5 Z"/></g>
<g><path style="opacity:1" fill="#d6473a" d="M 249.5,322.5 C 249.5,379.833 249.5,437.167 249.5,494.5C 244.5,494.5 239.5,494.5 234.5,494.5C 218.456,494.57 202.789,492.237 187.5,487.5C 181.285,484.38 174.619,482.38 167.5,481.5C 157.603,477.885 147.936,473.719 138.5,469C 136.944,466.386 134.61,465.053 131.5,465C 129.181,462.526 126.514,460.693 123.5,459.5C 121.025,456.759 118.025,454.759 114.5,453.5C 107.45,449.297 100.784,444.464 94.5,439C 75.3387,421.145 59.172,400.978 46,378.5C 42.9368,371.374 39.6035,364.374 36,357.5C 33.9952,350.044 31.8286,342.71 29.5,335.5C 30.8407,332.396 30.5074,329.562 28.5,327C 29.428,326.612 30.0946,325.945 30.5,325C 30.3535,323.273 29.6869,323.106 28.5,324.5C 27.4173,323.635 27.2506,322.635 28,321.5C 101.756,321.172 175.589,321.506 249.5,322.5 Z"/></g>
<g><path style="opacity:1" fill="#2e2e29" d="M 473.5,325.5 C 474.167,326.167 474.833,326.833 475.5,327.5C 473.216,340.636 469.383,353.302 464,365.5C 430.425,432.399 377.258,474.899 304.5,493C 280.723,497.826 256.723,499.826 232.5,499C 227.981,498.825 223.647,498.325 219.5,497.5C 234.17,497.667 248.837,497.5 263.5,497C 259.975,496.821 256.641,496.321 253.5,495.5C 259.441,494.587 265.441,494.254 271.5,494.5C 277.114,494.927 282.447,494.26 287.5,492.5C 307.682,488.884 327.349,483.051 346.5,475C 412.761,445.27 455.094,395.436 473.5,325.5 Z"/></g>
<g><path style="opacity:1" fill="#8c423a" d="M 249.5,319.5 C 249.833,319.5 250.167,319.5 250.5,319.5C 250.5,378.167 250.5,436.833 250.5,495.5C 245.167,495.5 239.833,495.5 234.5,495.5C 234.5,495.167 234.5,494.833 234.5,494.5C 239.5,494.5 244.5,494.5 249.5,494.5C 249.5,437.167 249.5,379.833 249.5,322.5C 249.5,321.5 249.5,320.5 249.5,319.5 Z"/></g>
<g><path style="opacity:1" fill="#1e1d1e" d="M 1.5,2.5 C 167.334,2.167 333.001,2.50034 498.5,3.5C 496.586,26.1287 495.252,48.7954 494.5,71.5C 492.533,79.0968 491.866,87.0968 492.5,95.5C 490.346,117.967 489.013,140.634 488.5,163.5C 487.732,164.263 487.232,165.263 487,166.5C 486.5,158.841 486.334,151.174 486.5,143.5C 488.456,126.707 489.456,109.707 489.5,92.5C 489.5,90.8333 489.5,89.1667 489.5,87.5C 490.302,86.0484 490.802,84.3817 491,82.5C 491.5,75.1742 491.666,67.8409 491.5,60.5C 492.29,53.5293 492.623,46.5293 492.5,39.5C 494.152,28.0357 495.152,16.369 495.5,4.5C 414.665,4.16736 333.998,4.5007 253.5,5.5C 253.5,168.833 253.5,332.167 253.5,495.5C 256.641,496.321 259.975,496.821 263.5,497C 248.837,497.5 234.17,497.667 219.5,497.5C 224.056,495.558 229.056,494.892 234.5,495.5C 239.833,495.5 245.167,495.5 250.5,495.5C 250.5,436.833 250.5,378.167 250.5,319.5C 175.334,318.334 100.001,318.168 24.5,319C 23.9558,319.717 23.2891,320.217 22.5,320.5C 22.5,320.167 22.5,319.833 22.5,319.5C 22.3398,317.801 22.5065,316.134 23,314.5C 23.3826,315.056 23.8826,315.389 24.5,315.5C 99.4926,317.497 174.826,318.164 250.5,317.5C 250.5,266.167 250.5,214.833 250.5,163.5C 250.5,162.167 250.5,160.833 250.5,159.5C 250.832,107.997 250.499,56.664 249.5,5.5C 168.002,4.50069 86.335,4.16735 4.5,4.5C 4.1765,11.0221 4.50984,17.3554 5.5,23.5C 5.5,33.5 5.5,43.5 5.5,53.5C 5.16667,53.5 4.83333,53.5 4.5,53.5C 3.04454,37.8992 1.71121,22.2326 0.5,6.5C 0.510839,4.95492 0.844172,3.62159 1.5,2.5 Z"/></g>
<g><path style="opacity:1" fill="#515036" d="M 489.5,92.5 C 489.456,109.707 488.456,126.707 486.5,143.5C 486.936,126.314 487.936,109.314 489.5,92.5 Z"/></g>
<g><path style="opacity:1" fill="#595439" d="M 491.5,60.5 C 491.666,67.8409 491.5,75.1742 491,82.5C 490.802,84.3817 490.302,86.0484 489.5,87.5C 489.892,78.3296 490.558,69.3296 491.5,60.5 Z"/></g>
<g><path style="opacity:1" fill="#7e7a40" d="M 253.5,5.5 C 333.998,4.5007 414.665,4.16736 495.5,4.5C 495.152,16.369 494.152,28.0357 492.5,39.5C 492.918,28.1486 493.584,16.8153 494.5,5.5C 414.833,5.5 335.167,5.5 255.5,5.5C 254.833,5.5 254.167,5.5 253.5,5.5 Z"/></g>
<g><path style="opacity:1" fill="#69393a" d="M 249.5,5.5 C 168.332,5.16736 87.3316,5.50069 6.5,6.5C 5.51114,11.9753 5.1778,17.642 5.5,23.5C 4.50984,17.3554 4.1765,11.0221 4.5,4.5C 86.335,4.16735 168.002,4.50069 249.5,5.5 Z"/></g>
<g><path style="opacity:1" fill="#6d352e" d="M 114.5,453.5 C 118.025,454.759 121.025,456.759 123.5,459.5C 119.633,458.738 116.633,456.738 114.5,453.5 Z"/></g>
<g><path style="opacity:1" fill="#99443d" d="M 167.5,481.5 C 174.619,482.38 181.285,484.38 187.5,487.5C 180.557,486.102 173.891,484.102 167.5,481.5 Z"/></g>
<g><path style="opacity:1" fill="#555236" d="M 287.5,492.5 C 282.447,494.26 277.114,494.927 271.5,494.5C 271.5,494.167 271.5,493.833 271.5,493.5C 276.854,493.431 282.187,493.098 287.5,492.5 Z"/></g>
</svg>

<svg xmlns="http://www.w3.org/2000/svg" width="502" height="505" style="shape-rendering:geometricPrecision;text-rendering:geometricPrecision;image-rendering:optimizeQuality;fill-rule:evenodd;clip-rule:evenodd"><path style="opacity:1" fill="#fdfdfd" d="M-.5-.5h502v505H-.5V-.5z"/><path style="opacity:1" fill="#fdfdfd" d="M255.5 5.5h239a774.572 774.572 0 0 0-2 34c.123 7.03-.21 14.03-1 21a425.989 425.989 0 0 0-2 27v5a758.107 758.107 0 0 0-3 51 7561.887 7561.887 0 0 0-9.5 152 248.45 248.45 0 0 1-3.5 30c-18.406 69.936-60.739 119.77-127 149.5-19.151 8.051-38.818 13.884-59 17.5-5.313.598-10.646.931-16 1h-17c-.331-162.707.003-325.374 1-488z"/><path style="opacity:1" fill="#414847" d="M1.5 2.5a31016.422 31016.422 0 0 1 498 0c-.124.607-.457.94-1 1-165.499-1-331.166-1.333-497-1z"/><path style="opacity:1" fill="#d6473a" d="M6.5 6.5h243v151c-78.404.33-156.738-.003-235-1-.613-4.437-1.28-8.77-2-13a812.807 812.807 0 0 0-1-32c.322-8.229-.345-16.23-2-24a1117.108 1117.108 0 0 1-2-32 373.798 373.798 0 0 0-2-32c-.322-5.858.011-11.525 1-17z"/><path style="opacity:1" fill="#442622" d="M5.5 23.5a373.798 373.798 0 0 1 2 32c-1.333 0-2-.667-2-2v-30z"/><path style="opacity:1" fill="#9d4840" d="M6.5 6.5c80.832-1 161.832-1.333 243-1a5930.197 5930.197 0 0 1 1 154h-3v-1c.992.172 1.658-.162 2-1V6.5H6.5z"/><path style="opacity:1" fill="#4b4f55" d="M494.5 71.5c-.276 8.18-.943 16.18-2 24-.634-8.403.033-16.403 2-24z"/><path style="opacity:1" fill="#94413b" d="M9.5 87.5c1.655 7.77 2.322 15.771 2 24-1.51-7.784-2.177-15.784-2-24z"/><path style="opacity:1" fill="#020202" d="M418.5 314.5a4218.025 4218.025 0 0 0 .5-159 10.134 10.134 0 0 0-1.5 4 8913.39 8913.39 0 0 0-47 180c-4.497.555-8.664-.111-12.5-2a11262.566 11262.566 0 0 0-47.5-175 20.093 20.093 0 0 0-1.5-6 4060.33 4060.33 0 0 0 .5 156c1.156 11.473 7.49 16.139 19 14v13h-54v-13c7.31 1.285 13.476-.715 18.5-6l1-3a1841.335 1841.335 0 0 0 1.5-84.5l-.5-79.5c-.7-3.566-2.533-6.4-5.5-8.5a50.5 50.5 0 0 0-15-1.5v-13c16.347-.333 32.68.001 49 1a14766.924 14766.924 0 0 1 44.5 162 8929.55 8929.55 0 0 0 43.5-163h47v13c-8.201-2.1-14.034.566-17.5 8a1798.014 1798.014 0 0 0-1.5 83.5c-.141 28.2.359 56.367 1.5 84.5 4.01 6.476 9.843 8.809 17.5 7v13h-58v-13c7.59 1.645 13.423-.688 17.5-7a12.93 12.93 0 0 0 .5-5z"/><path style="opacity:1" fill="#66696c" d="M492.5 95.5a964.763 964.763 0 0 1-4 68 931.132 931.132 0 0 1 4-68z"/><path style="opacity:1" fill="#d14744" d="M14.5 156.5c78.263.997 156.596 1.33 235 1-.342.838-1.008 1.172-2 1a6786.894 6786.894 0 0 1-233-2z"/><path style="opacity:1" fill="#6a322c" d="M12.5 143.5c.72 4.23 1.387 8.563 2 13a6786.894 6786.894 0 0 0 233 2v1c-78.003.333-156.003 0-234-1a61.253 61.253 0 0 1-1-15z"/><path style="opacity:1" fill="#252527" d="M4.5 53.5h1c0 1.333.667 2 2 2 .514 10.677 1.18 21.344 2 32-.177 8.216.49 16.216 2 24a812.807 812.807 0 0 1 1 32 61.253 61.253 0 0 0 1 15c77.997 1 155.997 1.333 234 1h3v4h-1a13805.826 13805.826 0 0 0-235-1v4c-.166 7.674 0 15.341.5 23 .186 2.536.686 4.869 1.5 7v3a1427.58 1427.58 0 0 0 2.5 58c.183 2.865.683 5.531 1.5 8a459.347 459.347 0 0 0 4 50c-.617-.111-1.117-.444-1.5-1a12.935 12.935 0 0 0-.5 5c-.768-.763-1.268-1.763-1.5-3a235.955 235.955 0 0 1-2.5-27c.438-10.89-.228-21.557-2-32a491.036 491.036 0 0 0-3-50c-.988-5.14-1.321-10.474-1-16 .421-7.911-.245-15.577-2-23a7987.879 7987.879 0 0 1-6-115z"/><path style="opacity:1" fill="#141416" d="M14.5 162.5c-1.704 3.588-2.704 2.922-3-2 79.334-.167 158.667 0 238 .5-78.501.167-156.834.667-235 1.5z"/><path style="opacity:1" fill="#fdfefe" d="M14.5 162.5c78.502-.333 156.835.001 235 1v152h-225a459.347 459.347 0 0 1-4-50 1094.26 1094.26 0 0 0-4-66v-3a294.82 294.82 0 0 0-2-30v-4z"/><path style="opacity:1" fill="#bebebe" d="M418.5 314.5a6007.518 6007.518 0 0 0-1-155 10.134 10.134 0 0 1 1.5-4c.832 53.168.665 106.168-.5 159z"/><path style="opacity:1" fill="#f8f8e9" d="M253.5 5.5h2a59768.255 59768.255 0 0 0-1 488h17v1a93.307 93.307 0 0 0-18 1V5.5z"/><path style="opacity:1" fill="#bcbcbc" d="M310.5 162.5a5625.947 5625.947 0 0 0-1 150 4060.33 4060.33 0 0 1-.5-156 20.093 20.093 0 0 1 1.5 6z"/><path style="opacity:1" fill="#626365" d="M10.5 168.5c1.755 7.423 2.421 15.089 2 23a297.853 297.853 0 0 1-2-23z"/><path style="opacity:1" fill="#4e5153" d="M14.5 166.5a294.82 294.82 0 0 1 2 30c-.814-2.131-1.314-4.464-1.5-7-.5-7.659-.666-15.326-.5-23z"/><path style="opacity:1" fill="#6a6f6d" d="M486.5 191.5c-.01 15.218-1.01 30.218-3 45 .5-15.185 1.5-30.185 3-45z"/><path style="opacity:1" fill="#242521" d="M486.5 143.5c-.166 7.674 0 15.341.5 23 .232-1.237.732-2.237 1.5-3a242.129 242.129 0 0 1-2 28 663.322 663.322 0 0 0-3 45 5813.363 5813.363 0 0 0-3.5 62c-.657 9.935-2.157 19.601-4.5 29l-2-2a248.45 248.45 0 0 0 3.5-30 7561.887 7561.887 0 0 1 9.5-152z"/><path style="opacity:1" fill="#717477" d="M13.5 207.5a491.036 491.036 0 0 1 3 50 595.019 595.019 0 0 1-3-50z"/><path style="opacity:1" fill="#434548" d="M16.5 199.5a1094.26 1094.26 0 0 1 4 66c-.817-2.469-1.317-5.135-1.5-8a1427.58 1427.58 0 0 1-2.5-58z"/><path style="opacity:1" fill="#6b6c6e" d="M16.5 257.5c1.772 10.443 2.438 21.11 2 32a484.942 484.942 0 0 1-2-32z"/><path style="opacity:1" fill="#595a5c" d="M249.5 163.5h1v154a6384.85 6384.85 0 0 1-226-2h225v-152z"/><path style="opacity:1" fill="#292626" d="M250.5 319.5h-225c-.285 1.915.049 3.581 1 5a108.732 108.732 0 0 0 3 11 461.4 461.4 0 0 1 6.5 22 302.604 302.604 0 0 1 10 21c13.172 22.478 29.339 42.645 48.5 60.5a138.602 138.602 0 0 0 20 14.5c2.133 3.238 5.133 5.238 9 6 3.014 1.193 5.681 3.026 8 5.5 3.11.053 5.444 1.386 7 4a278.093 278.093 0 0 0 29 12.5c6.391 2.602 13.057 4.602 20 6 15.289 4.737 30.956 7.07 47 7v1c-5.444-.608-10.444.058-15 2-77.64-10.836-136.474-49.836-176.5-117-10.2-18.771-17.032-38.771-20.5-60 .79-.283 1.456-.783 2-1.5a8518.455 8518.455 0 0 1 226 .5z"/><path style="opacity:1" fill="#894539" d="M207.5 319.5a8193.713 8193.713 0 0 1-181 1v4c-.951-1.419-1.285-3.085-1-5h182z"/><path style="opacity:1" fill="#cc4942" d="M207.5 319.5h42v3a12377.888 12377.888 0 0 0-221.5-1c-.75 1.135-.583 2.135.5 3 1.187-1.394 1.854-1.227 2 .5-.405.945-1.072 1.612-2 2 2.007 2.562 2.34 5.396 1 8.5a108.732 108.732 0 0 1-3-11v-4c60.502.332 120.836-.001 181-1z"/><path style="opacity:1" fill="#d6473a" d="M249.5 322.5v172h-15c-16.044.07-31.711-2.263-47-7-6.215-3.12-12.881-5.12-20-6a278.093 278.093 0 0 1-29-12.5c-1.556-2.614-3.89-3.947-7-4-2.319-2.474-4.986-4.307-8-5.5-2.475-2.741-5.475-4.741-9-6a138.602 138.602 0 0 1-20-14.5c-19.161-17.855-35.328-38.022-48.5-60.5a302.604 302.604 0 0 0-10-21 461.4 461.4 0 0 0-6.5-22c1.34-3.104 1.007-5.938-1-8.5.928-.388 1.595-1.055 2-2-.146-1.727-.813-1.894-2-.5-1.083-.865-1.25-1.865-.5-3 73.756-.328 147.589.006 221.5 1z"/><path style="opacity:1" fill="#2e2e29" d="m473.5 325.5 2 2a162.88 162.88 0 0 1-11.5 38c-33.575 66.899-86.742 109.399-159.5 127.5a307.968 307.968 0 0 1-72 6c-4.519-.175-8.853-.675-13-1.5 14.67.167 29.337 0 44-.5-3.525-.179-6.859-.679-10-1.5a93.307 93.307 0 0 1 18-1c5.614.427 10.947-.24 16-2 20.182-3.616 39.849-9.449 59-17.5 66.261-29.73 108.594-79.564 127-149.5z"/><path style="opacity:1" fill="#8c423a" d="M249.5 319.5h1v176h-16v-1h15v-175z"/><path style="opacity:1" fill="#1e1d1e" d="M1.5 2.5c165.834-.333 331.501 0 497 1a1328.454 1328.454 0 0 0-4 68c-1.967 7.597-2.634 15.597-2 24a931.132 931.132 0 0 0-4 68c-.768.763-1.268 1.763-1.5 3-.5-7.659-.666-15.326-.5-23 1.956-16.793 2.956-33.793 3-51v-5c.802-1.452 1.302-3.118 1.5-5 .5-7.326.666-14.66.5-22 .79-6.97 1.123-13.97 1-21a308.63 308.63 0 0 0 3-35c-80.835-.333-161.502 0-242 1v490c3.141.821 6.475 1.321 10 1.5-14.663.5-29.33.667-44 .5 4.556-1.942 9.556-2.608 15-2h16v-176a8518.455 8518.455 0 0 0-226-.5c-.544.717-1.21 1.217-2 1.5v-1c-.16-1.699.006-3.366.5-5 .383.556.883.889 1.5 1a6384.85 6384.85 0 0 0 226 2v-158a5930.197 5930.197 0 0 0-1-154c-81.498-1-163.165-1.333-245-1-.324 6.522.01 12.855 1 19v30h-1a2913.713 2913.713 0 0 1-4-47c.01-1.545.344-2.878 1-4z"/><path style="opacity:1" fill="#515036" d="M489.5 92.5c-.044 17.207-1.044 34.207-3 51a758.107 758.107 0 0 1 3-51z"/><path style="opacity:1" fill="#595439" d="M491.5 60.5c.166 7.34 0 14.674-.5 22-.198 1.882-.698 3.548-1.5 5 .392-9.17 1.058-18.17 2-27z"/><path style="opacity:1" fill="#7e7a40" d="M253.5 5.5c80.498-1 161.165-1.333 242-1a308.63 308.63 0 0 1-3 35 774.572 774.572 0 0 1 2-34h-241z"/><path style="opacity:1" fill="#69393a" d="M249.5 5.5c-81.168-.333-162.168 0-243 1-.989 5.475-1.322 11.142-1 17-.99-6.145-1.324-12.478-1-19 81.835-.333 163.502 0 245 1z"/><path style="opacity:1" fill="#6d352e" d="M114.5 453.5c3.525 1.259 6.525 3.259 9 6-3.867-.762-6.867-2.762-9-6z"/><path style="opacity:1" fill="#99443d" d="M167.5 481.5c7.119.88 13.785 2.88 20 6-6.943-1.398-13.609-3.398-20-6z"/><path style="opacity:1" fill="#555236" d="M287.5 492.5c-5.053 1.76-10.386 2.427-16 2v-1a161.574 161.574 0 0 0 16-1z"/></svg>
